X: 27134
T: Miss McGuinness
R: reel
M: 4/4
K: Gmajor
vcF (3FFF cFAF|defg afef|cF (3FFF cFAc|dfcA AGG2|
cF (3FFF cFAF|defg afef|cF (3FFF cFAc|dfcA GFF2:|
|:g2ag f2c2|dfcf dfcf|g2ag fdde|fdcA|AGG2|
g2ag f2c2|dfcf dfcf|.a.f((3g/f/e/) fdde|fdcA GFF2:|
dG G/G/G dGBG|efga bgfg|dG G/G/G dGBd|egdB BA A2|
dG G/G/G dGBG|efga bgfg|dG G/G/G dGBd|egdB AG G2:|
|:a2ba g2d2|egdg egdg|a2ba geef|gedB BA A2|
a2ba g2d2|egdg egdg|bg a/g/f geef|gedB AG G2:|

